svgs/light/circle-s.svg

<svg xmlns="http://www.w3.org/2000/svg" viewBox="0 0 512 512"><!--! Font Awesome Pro 6.3.0 by @fontawesome - https://fontawesome.com License - https://fontawesome.com/license (Commercial License) Copyright 2023 Fonticons, Inc. --><path d="M256 0C114.6 0 0 114.6 0 256s114.6 256 256 256s256-114.6 256-256S397.4 0 256 0zM256 480c-123.5 0-224-100.5-224-224s100.5-224 224-224s224 100.5 224 224S379.5 480 256 480zM260.2 240.6C209.4 226.1 187.7 218.1 192.8 190.4c1.094-5.953 4.469-14.41 14.38-20.81c13.41-8.672 42.06-15.94 102.2-1.062c8.719 2.094 17.25-3.125 19.38-11.69c2.125-8.578-3.125-17.25-11.69-19.38c-57.16-14.11-99.94-12.39-127.2 5.25c-15.22 9.844-25.34 24.73-28.5 41.92C150.3 244.2 209 260 251.8 271.5c50.78 13.66 72.47 22.53 67.38 50.22c-1.938 10.55-6.969 17.78-15.81 22.77c-23.06 12.92-70.81 8.766-121.7-10.61c-8.188-3.094-17.5 .9844-20.62 9.266c-3.156 8.25 1 17.5 9.25 20.64c15.66 5.953 57.13 20.16 96.94 20.16c18.59 0 36.81-3.094 51.84-11.56c17.06-9.594 27.97-25.11 31.62-44.88C361.7 267.9 303 252.1 260.2 240.6z"/></svg>

<svg xmlns="http://www.w3.org/2000/svg" viewBox="0 0 512 512"><!-- Font Awesome Pro 6.0.0-alpha2 by @fontawesome - https://fontawesome.com License - https://fontawesome.com/license (Commercial License) --><path d="M260.156 240.625C209.375 226.969 187.688 218.094 192.781 190.391C193.875 184.437 197.25 175.984 207.156 169.578C220.563 160.906 249.219 153.641 309.313 168.516C318.031 170.609 326.563 165.391 328.688 156.828C330.813 148.25 325.563 139.578 317 137.453C259.844 123.344 217.063 125.062 189.781 142.703C174.563 152.547 164.438 167.437 161.281 184.625C150.312 244.234 209 260 251.844 271.516C302.625 285.172 324.312 294.047 319.219 321.734C317.281 332.281 312.25 339.516 303.406 344.5C280.344 357.422 232.594 353.266 181.688 333.891C173.5 330.797 164.188 334.875 161.063 343.156C157.906 351.406 162.063 360.656 170.313 363.797C185.969 369.75 227.438 383.953 267.25 383.953C285.844 383.953 304.063 380.859 319.094 372.391C336.156 362.797 347.063 347.281 350.719 327.516C361.688 267.906 303 252.141 260.156 240.625ZM256 16C123.451 16 16 123.451 16 256S123.451 496 256 496S496 388.549 496 256S388.549 16 256 16ZM256 464C141.309 464 48 370.691 48 256S141.309 48 256 48S464 141.309 464 256S370.691 464 256 464Z"/></svg>
